app/assets/svg/delete.svg

<svg width="11px" height="13px" viewBox="47 1 11 13" version="1.1" xmlns="http://www.w3.org/2000/svg" xmlns:xlink="http://www.w3.org/1999/xlink">
    <!-- Generator: Sketch 3.8.3 (29802) - http://www.bohemiancoding.com/sketch -->
    <desc>Created with Sketch.</desc>
    <defs></defs>
    <path d="M56.8422998,3.28571429 L54.7702367,3.28571429 L54.7702367,2.71428571 C54.7702367,1.76714286 54.0748005,1 53.2161893,1 L51.1441262,1 C50.2855151,1 49.5900789,1.76714286 49.5900789,2.71428571 L49.5900789,3.28571429 L47.5180158,3.28571429 C47.2319416,3.28571429 47,3.54157143 47,3.85714286 C47,4.17271429 47.2319416,4.42857143 47.5180158,4.42857143 L48.0360316,4.42857143 L48.0360316,11.2857143 C48.0360316,12.2328571 48.7314677,13 49.5900789,13 L54.7702367,13 C55.6288478,13 56.324284,12.2328571 56.324284,11.2857143 L56.324284,4.42857143 L56.8422998,4.42857143 C57.128374,4.42857143 57.3603156,4.17271429 57.3603156,3.85714286 C57.3603156,3.54157143 57.128374,3.28571429 56.8422998,3.28571429 L56.8422998,3.28571429 Z M50.6261104,2.71428571 C50.6261104,2.39857143 50.8579225,2.14285714 51.1441262,2.14285714 L53.2161893,2.14285714 C53.5023931,2.14285714 53.7342051,2.39857143 53.7342051,2.71428571 L53.7342051,3.28571429 L50.6261104,3.28571429 L50.6261104,2.71428571 L50.6261104,2.71428571 Z M55.2882525,11.2857143 C55.2882525,11.6014286 55.0564404,11.8571429 54.7702367,11.8571429 L49.5900789,11.8571429 C49.3038752,11.8571429 49.0720631,11.6014286 49.0720631,11.2857143 L49.0720631,4.42857143 L55.2882525,4.42857143 L55.2882525,11.2857143 L55.2882525,11.2857143 Z" id="Shape" stroke="none" fill="#7F7F7F" fill-rule="evenodd"></path>
</svg>

<svg width="11" height="13" viewBox="47 1 11 13" xmlns="http://www.w3.org/2000/svg"><path d="M56.842 3.286H54.77v-.572c0-.947-.695-1.714-1.554-1.714h-2.072c-.858 0-1.554.767-1.554 1.714v.572h-2.072c-.286 0-.518.256-.518.571 0 .316.232.572.518.572h.518v6.857c0 .947.695 1.714 1.554 1.714h5.18c.859 0 1.554-.767 1.554-1.714V4.429h.518c.286 0 .518-.256.518-.572 0-.315-.232-.571-.518-.571zm-6.216-.572c0-.315.232-.571.518-.571h2.072c.286 0 .518.256.518.571v.572h-3.108v-.572zm4.662 8.572c0 .315-.232.571-.518.571h-5.18c-.286 0-.518-.256-.518-.571V4.429h6.216v6.857z" fill="#7F7F7F" fill-rule="evenodd"/></svg>
